ui/StatusQ/src/assets/img/icons/discord.svg

<svg fill="none" height="22" viewBox="0 0 22 22" width="22" xmlns="http://www.w3.org/2000/svg"><path d="m9.04688 12.375c0 .4401-.35678.7969-.79688.7969s-.79688-.3568-.79688-.7969.35678-.7969.79688-.7969.79688.3568.79688.7969z" fill="#939ba1" stroke="#939ba1" stroke-width=".125"/><path d="m13.75 13.2344c.4746 0 .8594-.3848.8594-.8594s-.3848-.8594-.8594-.8594-.8594.3848-.8594.8594.3848.8594.8594.8594z" fill="#939ba1"/><g stroke="#939ba1" stroke-linecap="round" stroke-linejoin="round" stroke-width="1.5"><path d="m6.3938 6.87488c1.49046-.4665 3.04438-.69844 4.6061-.6875 1.5617-.01094 3.1156.22099 4.606.68748"/><path d="m15.6061 15.125c-1.4904.4665-3.0443.6984-4.606.6875-1.56172.0109-3.11562-.221-4.60606-.6875"/><path d="m13.324 15.648 1.0334 2.0668c.0689.1389.1828.2502.3231.3159.1404.0657.2989.0819.4496.0459 2.1088-.5156 3.9267-1.4145 5.2508-2.5654.1011-.0869.1749-.2012.2126-.3291s.0376-.264-.0002-.3918l-2.9196-9.73215c-.0295-.09813-.0805-.18846-.1493-.26441-.0687-.07595-.1536-.13561-.2483-.17465-.8248-.33771-1.6779-.60179-2.5493-.78915-.166-.03638-.3396-.01012-.4875.07374-.1478.08386-.2594.21939-.3134.38056l-.6852 2.05559"/><path d="m8.67591 15.648-1.03342 2.0668c-.06886.1389-.18277.2502-.32312.3159s-.29884.0819-.44956.0459c-2.10879-.5156-3.92672-1.4145-5.25078-2.5653-.10112-.087-.17496-.2013-.21264-.3292-.03769-.1279-.03762-.264.0002-.3918l2.91963-9.73215c.02947-.09813.08045-.18846.14923-.26442.06878-.07595.15362-.13561.24836-.17464.82483-.33771 1.67792-.60179 2.54928-.78915.16602-.03638.33963-.01012.48746.07374.14784.08386.25946.21939.31342.38056l.68519 2.05559"/></g></svg>

<svg width="22" height="22" viewBox="0 0 22 22" fill="none" xmlns="http://www.w3.org/2000/svg">
<path d="M9.04688 12.375C9.04688 12.8151 8.6901 13.1719 8.25 13.1719C7.8099 13.1719 7.45312 12.8151 7.45312 12.375C7.45312 11.9349 7.8099 11.5781 8.25 11.5781C8.6901 11.5781 9.04688 11.9349 9.04688 12.375Z" fill="#939BA1" stroke="#939BA1" stroke-width="0.125"/>
<path d="M13.75 13.2344C14.2246 13.2344 14.6094 12.8496 14.6094 12.375C14.6094 11.9004 14.2246 11.5156 13.75 11.5156C13.2754 11.5156 12.8906 11.9004 12.8906 12.375C12.8906 12.8496 13.2754 13.2344 13.75 13.2344Z" fill="#939BA1"/>
<path d="M6.3938 6.87488C7.88426 6.40838 9.43818 6.17644 10.9999 6.18738C12.5616 6.17644 14.1155 6.40837 15.6059 6.87486" stroke="#939BA1" stroke-width="1.5" stroke-linecap="round" stroke-linejoin="round"/>
<path d="M15.6061 15.125C14.1157 15.5915 12.5618 15.8234 11.0001 15.8125C9.43838 15.8234 7.88448 15.5915 6.39404 15.125" stroke="#939BA1" stroke-width="1.5" stroke-linecap="round" stroke-linejoin="round"/>
<path d="M13.324 15.648L14.3574 17.7148C14.4263 17.8537 14.5402 17.965 14.6805 18.0307C14.8209 18.0964 14.9794 18.1126 15.1301 18.0766C17.2389 17.561 19.0568 16.6621 20.3809 15.5112C20.482 15.4243 20.5558 15.31 20.5935 15.1821C20.6312 15.0542 20.6311 14.9181 20.5933 14.7903L17.6737 5.05815C17.6442 4.96002 17.5932 4.86969 17.5244 4.79374C17.4557 4.71779 17.3708 4.65813 17.2761 4.61909C16.4513 4.28138 15.5982 4.0173 14.7268 3.82994C14.5608 3.79356 14.3872 3.81982 14.2393 3.90368C14.0915 3.98754 13.9799 4.12307 13.9259 4.28424L13.2407 6.33983" stroke="#939BA1" stroke-width="1.5" stroke-linecap="round" stroke-linejoin="round"/>
<path d="M8.67591 15.648L7.64249 17.7148C7.57363 17.8537 7.45972 17.965 7.31937 18.0307C7.17902 18.0964 7.02053 18.1126 6.86981 18.0766C4.76102 17.561 2.94309 16.6621 1.61903 15.5113C1.51791 15.4243 1.44407 15.31 1.40639 15.1821C1.3687 15.0542 1.36877 14.9181 1.40659 14.7903L4.32622 5.05815C4.35569 4.96002 4.40667 4.86969 4.47545 4.79373C4.54423 4.71778 4.62907 4.65812 4.72381 4.61909C5.54864 4.28138 6.40173 4.0173 7.27309 3.82994C7.43911 3.79356 7.61272 3.81982 7.76055 3.90368C7.90839 3.98754 8.02001 4.12307 8.07397 4.28424L8.75916 6.33983" stroke="#939BA1" stroke-width="1.5" stroke-linecap="round" stroke-linejoin="round"/>
</svg>
